lib/svgs/snooze.svg

<?xml version="1.0" encoding="UTF-8"?>
<svg width="17px" height="17px" viewBox="0 0 17 17" version="1.1" xmlns="http://www.w3.org/2000/svg" xmlns:xlink="http://www.w3.org/1999/xlink">
    <!-- Generator: sketchtool 51.3 (57544) - http://www.bohemiancoding.com/sketch -->
    <title>app/snooze</title>
    <desc>Created with sketchtool.</desc>
    <defs></defs>
    <g id="Icons" stroke="none" stroke-width="1" fill="none" fill-rule="evenodd">
        <g id="Web" transform="translate(-579.000000, -629.000000)" fill="#000000" fill-rule="nonzero">
            <g id="app/snooze" transform="translate(579.000000, 629.000000)">
                <path d="M9.73011762,3.21335475 C11.859425,3.85839735 13.4195288,5.84312317 13.4195288,8.17663179 L13.4195288,11.6331308 C13.4195288,12.0527033 13.5501107,12.4614304 13.7938431,12.8037912 L14.2095491,13.3900283 C14.4823495,13.7725114 14.5179817,14.274886 14.3028649,14.6924655 C14.0877638,15.1100149 13.6574812,15.3727261 13.1877811,15.3727261 L10.2037527,15.3727261 C9.87511526,16.1339118 9.11774073,16.6666667 8.23595306,16.6666667 C7.35416539,16.6666667 6.59679087,16.1339118 6.26815341,15.3727261 L3.28409004,15.3727261 C2.81439,15.3727261 2.38410742,15.1100149 2.16973825,14.6938819 C1.95338742,14.2766338 1.98902711,13.7741533 2.26092505,13.3909605 L2.67867627,12.8028789 C2.88854134,12.5080917 3.01729487,12.1589874 3.04617066,11.8161432 C3.07398122,11.4859464 3.36420352,11.2408139 3.69440031,11.2686245 C4.0245971,11.2964351 4.26972957,11.5866574 4.24191901,11.9168541 C4.19491763,12.4749048 3.99040077,13.0294349 3.65659405,13.4983164 L3.23938822,14.0856306 C3.22739613,14.1025313 3.22588247,14.1238723 3.23575972,14.1429259 C3.24521938,14.1612888 3.26398151,14.1727441 3.28409004,14.1727441 L13.1877811,14.1727441 C13.2078897,14.1727441 13.2266518,14.1612888 13.2361115,14.1429259 C13.2456688,14.1243734 13.2441548,14.1030267 13.2316466,14.0854856 L12.815637,13.4988225 C12.427849,12.9541156 12.2195468,12.3021204 12.2195468,11.6331308 L12.2195468,8.17663179 C12.2195468,5.98677804 10.4254226,4.19265378 8.23556882,4.19265378 C7.85876446,4.19265378 7.48799767,4.24582638 7.13163721,4.34930673 C6.81341623,4.4417121 6.4805378,4.25865237 6.38813243,3.94043139 C6.29572706,3.6222104 6.47878679,3.28933198 6.79700777,3.19692661 C6.82350306,3.18923288 6.85005927,3.18175245 6.87667426,3.174486 C6.7318296,2.92749509 6.64877687,2.63992671 6.64877687,2.33304167 C6.64877687,1.41305547 7.39516568,0.666666667 8.31515188,0.666666667 C9.23513808,0.666666667 9.98152688,1.41305547 9.98152688,2.33304167 C9.98152688,2.65616729 9.88945113,2.95787765 9.73011762,3.21335475 Z M8.31515188,1.86664867 C8.05835573,1.86664867 7.84875887,2.07544553 7.84875887,2.33304167 C7.84875887,2.58983782 8.05835573,2.79943468 8.31515188,2.79943468 C8.57194802,2.79943468 8.78154488,2.58983782 8.78154488,2.33304167 C8.78154488,2.07544553 8.57194802,1.86664867 8.31515188,1.86664867 Z M2.69689208,9.04227696 L4.87259538,6.86657367 L3.12114979,6.86657367 C2.78978391,6.86657367 2.52115879,6.59794855 2.52115879,6.26658267 C2.52115879,5.93521679 2.78978391,5.66659167 3.12114979,5.66659167 L6.32110179,5.66659167 C6.85563668,5.66659167 7.12333274,6.31286713 6.74535949,6.69084037 L4.5696562,8.86654367 L6.32110179,8.86654367 C6.65246767,8.86654367 6.92109279,9.13516879 6.92109279,9.46653467 C6.92109279,9.79790055 6.65246767,10.0665257 6.32110179,10.0665257 L3.12114979,10.0665257 C2.58661489,10.0665257 2.31891883,9.42025021 2.69689208,9.04227696 Z" id="Combined-Shape"></path>
            </g>
        </g>
    </g>
</svg>

<svg xmlns="http://www.w3.org/2000/svg" viewBox="0 0 17 17">
    <path d="M9.73 3.213a5.202 5.202 0 0 1 3.69 4.964v3.456c0 .42.13.828.374 1.17l.416.587a1.254 1.254 0 0 1-1.022 1.983h-2.984a2.143 2.143 0 0 1-3.936 0H3.284a1.254 1.254 0 0 1-1.023-1.982l.418-.588c.21-.295.338-.644.367-.987a.6.6 0 1 1 1.196.1 3.216 3.216 0 0 1-.585 1.582l-.418.588a.054.054 0 0 0-.003.057c.01.018.028.03.048.03h9.904c.02 0 .039-.012.048-.03a.054.054 0 0 0-.004-.058l-.416-.586a3.216 3.216 0 0 1-.596-1.866V8.177a3.997 3.997 0 0 0-5.088-3.828.6.6 0 0 1-.335-1.152l.08-.023a1.667 1.667 0 1 1 2.853.039zM8.315 1.867a.467.467 0 1 0 .001.933.467.467 0 0 0 0-.933zM2.697 9.042l2.176-2.175H3.12a.6.6 0 1 1 0-1.2h3.2a.6.6 0 0 1 .424 1.024L4.57 8.867H6.32a.6.6 0 1 1 0 1.2h-3.2a.6.6 0 0 1-.424-1.025z"/>
</svg>
